X:1
T:Ye kings, from error’s sleep arise
T:Richard Worgan
T:p11, Improved Psalmody, ed. W. D. Tattersall, London: (1794)
T:This edition by Edmund Gooch released into the public domain, January 2013.
T:Ye kings, from error’s sleep arise
T:PSALM 2. Ver: 10. 11. 12. Kings exhorted to Worship God and his Messiah
C:Richard Worgan
Z:p11, Improved Psalmody,
Z:ed. W. D. Tattersall,
Z:London: (1794)
%%score [ 1 2 3 ]
L:1/8
M:2/2
K:C
V:1 treble nm="Soprano" snm="S."
V:2 treble nm="Alto" snm="A."
V:3 bass nm="Bass" snm="B."
V:1
"^Slow" c4 | G4 A4 | E4 F4 | D6 B2 | c4 e4 | e4 (e2 d2) | (c2 B2) (A2 G2) | ^F4 c4 | (c2 B2) B4 | %9
w: If|yet but|kind- ling|in his|hand The|venge- ful _|bolt _ up- *|lift- ed|stand, _ Thrice|
w: Ye|kings, from|er- ror’s|sleep a-|rise; Ye|jud- ges _|of _ the _|earth, be|wise; _ And|
w: O,|lest ye|pe- rish|from the|way That|leads to _|realms _ of _|end- less|day, _ With|
 e4 c4 | d4 B4 | c4 (B2 A2) | G4 G4 | A4 d4 | G4 (A2 c2) | B4 d4 | c4 |] %17
w: hap- py,|who on|him de- *|pend, And|thank- ful,|own th’al- *|migh- ty|friend.|
w: warmed with|du- teous|zeal, con- *|spire To|serve with|joy th’e- *|ter- nal|Sire.|
w: aw- ful|love, with|ho- ly _|fear His|Son, the|world’s great _|hope, re-|vere.|
V:2
 c4 | G4 A4 | E4 F4 | D6 D2 | E4 G4 | G4 A4 | G4 E4 | (D2 E2) (^F2 A2) | G4 G4 | G4 E4 | F4 D4 | %11
w: If|yet but|kind- ling|in his|hand The|venge- ful|bolt up-|lift- * ed _|stand, Thrice|hap- py,|who on|
w: Ye|kings, from|er- ror’s|sleep a-|rise; Ye|jud- ges|of the|earth, _ be _|wise; And|warmed with|du- teous|
w: O,|lest ye|pe- rish|from the|way That|leads to|realms of|end- * less _|day, With|aw- ful|love, with|
 E4 F4 | E4 E4 | F4 (G2 F2) | E4 (F2 E2) | D4 F4 | E4 |] %17
w: him de-|pend, And|thank- ful, _|own th’al- *|migh- ty|friend.|
w: zeal, con-|spire To|serve with _|joy th’e- *|ter- nal|Sire.|
w: ho- ly|fear His|Son, the _|world’s great _|hope, re-|vere.|
V:3
 C4 | G,4 A,4 | E,4 F,4 | D,6 G,2 | C,4 C4 | E,4 ^F,4 | G,4 C,4 | D,6 D,2 | G,,4 G,4 | E,4 A,4 | %10
w: If|yet but|kind- ling|in his|hand The|venge- ful|bolt up-|lift- ed|stand, Thrice|hap- py,|
w: Ye|kings, from|er- ror’s|sleep a-|rise; Ye|jud- ges|of the|earth, be|wise; And|warmed with|
w: O,|lest ye|pe- rish|from the|way That|leads to|realms of|end- less|day, With|aw- ful|
 D,4 G,4 | C,4 F,4 | %12
w: who on|him de-|
w: du- teous|zeal, con-|
w: love, with|ho- ly|
"^Notes:The first verse only of the text is underlaid in the source, with the other two verses given here printed after the music.The C on beat 1 of bar 8 and the B on beat 2 of bar 11 in the 1st soprano part are both printed in the original as smallcrotchet grace notes. This setting is attributed to ‘Rd. Worgan‘ in the source." C4 _B,4 | %13
w: pend, And|
w: spire To|
w: fear His|
 A,4 B,4 | C4 F,4 | G,4 G,,4 | C,4 |] %17
w: thank- ful,|own th’al-|migh- ty|friend.|
w: serve with|joy th’e-|ter- nal|Sire.|
w: Son, the|world’s great|hope, re-|vere.|

